assets/symbols/mulberry/school.svg

<svg height="850.394" viewBox="0 0 850.394 850.394" width="850.394" xmlns="http://www.w3.org/2000/svg"><path d="m764.26 381.18v279.27h-687.16v-279.05h192.71v-49.54l100.94-83.19 4.02-3.31 45.43-37.44 46.34 37.44 3.12 2.52 103.68 83.76v49.54zm-36.45 203.23v-143.57h-79v143.57zm-120.55 0v-143.57h-78.99v143.57zm-113.33 73.86v-175.54h-146.5v175.54zm-184.34-73.86v-143.57h-78.99v143.57zm-120.55 0v-143.57h-78.99v143.57z" fill="#ffeec8"/><path d="m764.26 245.36v135.82h-190.92v-49.54l-103.68-83.76 2.04-2.52z" fill="#787878"/><g fill="#fff"><path d="m688.86 476.33h38.949v108.08h-38.949zm38.95-35.49v35.49h-38.95v-35.49z"/><path d="m648.81 476.33h40.051v108.08h-40.051z"/><path d="m688.86 442.99v33.34h-40.05v-35.49h40.05zm-120.55 33.34h38.95v108.08h-38.95zm38.95-35.49v35.49h-38.95v-35.49zm-78.99 35.49h40.04v108.08h-40.04z"/><path d="m568.31 442.99v33.34h-40.04v-35.49h40.04z"/></g><path d="m493.93 482.73v175.54h-73.25v-175.54zm-73.25 172.92v2.62h-73.25v-175.54h73.25v4.36z" fill="#ff001c"/><path d="m369.67 245.36 1.08 3.31-100.94 83.19v49.54h-192.71v-136.04z" fill="#787878"/><path d="m270.64 476.33h38.95v108.08h-38.95zm38.95-35.49v35.49h-38.95v-35.49zm-78.99 35.49h40.04v108.08h-40.04z" fill="#fff"/><path d="m270.64 442.99v33.34h-40.04v-35.49h40.04zm-120.54 33.34h38.94v108.08h-38.94zm38.94-35.49v35.49h-38.94v-35.49zm-78.99 35.49h40.05v108.08h-40.05z" fill="#fff"/><path d="m150.1 442.99v33.34h-40.05v-35.49h40.05z" fill="#fff"/><g fill="none" stroke="#231f20"><path d="m471.7 245.36h292.56v415.09h-687.16v-415.09h292.57" stroke-width="28"/><path d="m420.68 482.73h73.25v175.54h-146.5v-175.54z" stroke-width="21"/><path d="m189.04 476.33v108.08h-78.99v-143.57h78.99zm-78.99 0h78.99m-38.94-33.34v141.42m159.49-108.08v108.08h-78.99v-143.57h78.99zm-78.99 0h78.99m-38.95-33.34v141.42m336.62-108.08v108.08h-78.99v-143.57h78.99zm-78.99 0h78.99m-38.95-33.34v141.42m159.5-108.08v108.08h-79v-143.57h79zm-79 0h79m-38.95-33.34v141.42" stroke-width="14"/><path d="m370.75 248.67-100.94 83.19v49.54h-191.32" stroke-width="28"/><path d="m374.77 245.36-4.02 3.31" stroke-width="26.51"/><path d="m466.54 245.36-46.34-37.44-45.43 37.44m389.89 135.82h-191.32v-49.54l-103.68-83.76-3.12-2.52" stroke-width="28"/><path d="m420.68 487.09v168.56" stroke-width="21"/></g><path d="m0 0h850.394v850.394h-850.394z" fill="none"/></svg>

<svg xmlns="http://www.w3.org/2000/svg" width="850.394" height="850.394" viewBox="0 0 850.394 850.394" overflow="visible"><path d="M764.26 381.18v279.27H77.1V381.4H269.81v-49.54l100.94-83.19 4.02-3.31 45.43-37.44 46.34 37.44 3.12 2.52 103.68 83.76v49.54h190.92zm-36.45 203.23V440.84h-79v143.57h79zm-120.55 0V440.84H528.27v143.57H607.26zm-113.33 73.86V482.73h-146.5v175.54h146.5zm-184.34-73.86V440.84H230.6v143.57H309.59zm-120.55 0V440.84h-78.99v143.57h78.99z" fill="#ffeec8"/><path fill="#787878" d="M764.26 245.36v135.82H573.34v-49.54l-103.68-83.76 2.04-2.52z"/><path fill="#fff" d="M688.86 476.33h38.949v108.08H688.86zM727.81 440.84v35.49h-38.95v-35.49z"/><path fill="#fff" d="M648.81 476.33h40.051v108.08H648.81z"/><path fill="#fff" d="M688.86 442.99v33.34h-40.05v-35.49h40.05zM568.31 476.33h38.95v108.08h-38.95zM607.26 440.84v35.49h-38.95v-35.49zM528.27 476.33h40.04v108.08h-40.04z"/><path fill="#fff" d="M568.31 442.99v33.34h-40.04v-35.49h40.04z"/><path fill="#ff001c" d="M493.93 482.73v175.54h-73.25V482.73zM420.68 655.65v2.62h-73.25V482.73h73.25v4.36z"/><path fill="#787878" d="M369.67 245.36l1.08 3.31-100.94 83.19v49.54H77.1V245.36z"/><path fill="#fff" d="M270.64 476.33h38.95v108.08h-38.95zM309.59 440.84v35.49h-38.95v-35.49zM230.6 476.33h40.04v108.08H230.6z"/><path fill="#fff" d="M270.64 442.99v33.34H230.6v-35.49h40.04zM150.1 476.33h38.94v108.08H150.1zM189.04 440.84v35.49H150.1v-35.49zM110.05 476.33h40.05v108.08h-40.05z"/><path fill="#fff" d="M150.1 442.99v33.34h-40.05v-35.49h40.05z"/><g fill="none" stroke="#231f20"><path stroke-width="28" d="M471.7 245.36h292.56v415.09H77.1V245.36h292.57"/><path stroke-width="21" d="M420.68 482.73h73.25v175.54h-146.5V482.73z"/><path stroke-width="14" d="M189.04 476.33v108.08h-78.99V440.84h78.99zM110.05 476.33h78.99M150.1 442.99V584.41M309.59 476.33v108.08H230.6V440.84H309.59zM230.6 476.33H309.59M270.64 442.99V584.41M607.26 476.33v108.08H528.27V440.84H607.26zM528.27 476.33H607.26M568.31 442.99V584.41M727.81 476.33v108.08h-79V440.84h79zM648.81 476.33h79M688.86 442.99V584.41"/><path stroke-width="28" d="M370.75 248.67l-100.94 83.19v49.54H78.49"/><path stroke-width="26.51" d="M374.77 245.36l-4.02 3.31"/><path stroke-width="28" d="M466.54 245.36l-46.34-37.44-45.43 37.44M764.66 381.18H573.34v-49.54l-103.68-83.76-3.12-2.52"/><path stroke-width="21" d="M420.68 487.09v168.56"/></g><path fill="none" d="M0 0h850.394v850.394H0z"/></svg>
